src/assets/skillIcons/mongo-logo.svg

<svg width="120" height="258" viewBox="0 0 120 258" fill="none" xmlns="http://www.w3.org/2000/svg">
<path d="M83.0089 28.7559C72.1328 15.9086 62.7673 2.86053 60.8539 0.150554C60.6525 -0.0501848 60.3503 -0.0501848 60.1489 0.150554C58.2355 2.86053 48.8699 15.9086 37.9938 28.7559C-55.3594 147.292 52.6968 227.287 52.6968 227.287L53.6031 227.889C54.4087 240.235 56.4228 258 56.4228 258H60.451H64.4792C64.4792 258 66.4934 240.335 67.299 227.889L68.2052 227.187C68.306 227.187 176.362 147.292 83.0089 28.7559ZM60.451 225.48C60.451 225.48 55.6172 221.365 54.3081 219.257V219.057L60.1489 89.9813C60.1489 89.5798 60.7532 89.5798 60.7532 89.9813L66.594 219.057V219.257C65.2848 221.365 60.451 225.48 60.451 225.48Z" fill="#00684A"/>
</svg>

<svg xmlns="http://www.w3.org/2000/svg" width="120" height="258" fill="none"><path fill="#00684A" d="M83.009 28.756C72.133 15.909 62.767 2.86 60.854.15a.49.49 0 0 0-.705 0c-1.913 2.71-11.28 15.758-22.155 28.605-93.353 118.536 14.703 198.531 14.703 198.531l.906.602c.806 12.346 2.82 30.111 2.82 30.111h8.056s2.014-17.665 2.82-30.111l.906-.702c.101 0 108.157-79.895 14.804-198.431M60.45 225.48s-4.834-4.115-6.143-6.223v-.2l5.84-129.076c0-.401.605-.401.605 0l5.841 129.076v.2c-1.31 2.108-6.143 6.223-6.143 6.223"/></svg>
